frontend/public/Fostering-Synergy-and-Insight.svg

<svg
        xmlns="http://www.w3.org/2000/svg"
        width="36"
        height="36"
        viewBox="0 0 30 30"
        fill="none"
      >
        <path
          d="M12.0795 21.25H17.9206M15.0001 3.75V5M22.955 7.04505L22.0711 7.92893M26.2501 14.9999H25.0001M5.00012 14.9999H3.75012M7.92899 7.92893L7.0451 7.04505M10.5806 19.4194C8.13986 16.9787 8.13986 13.0214 10.5806 10.5806C13.0214 8.13983 16.9787 8.13983 19.4195 10.5806C21.8602 13.0214 21.8602 16.9787 19.4195 19.4194L18.7356 20.1033C17.9445 20.8944 17.5001 21.9674 17.5001 23.0862V23.75C17.5001 25.1307 16.3808 26.25 15.0001 26.25C13.6193 26.25 12.5001 25.1307 12.5001 23.75V23.0862C12.5001 21.9674 12.0556 20.8944 11.2645 20.1033L10.5806 19.4194Z"
          stroke="#0F172A"
          strokeWidth="2"
          strokeLinecap="round"
          strokeLinejoin="round"
        ></path>
      </svg>

<svg xmlns="http://www.w3.org/2000/svg" width="36" height="36" fill="none" viewBox="0 0 30 30"><path stroke="#0F172A" d="M12.08 21.25h5.84M15 3.75V5m7.955 2.045-.884.884m4.18 7.07H25M5 15H3.75m4.178-7.07-.884-.884m3.536 12.374a6.25 6.25 0 1 1 8.839 0l-.684.684a4.22 4.22 0 0 0-1.236 2.983v.664a2.5 2.5 0 0 1-5 0v-.664a4.22 4.22 0 0 0-1.235-2.983z"/></svg>
